X:9
T:The Hops and the Heather
F:http://www.hiico.com/.abc/hops_heather.abc
O:Scotland
K:A
M:4/4
L:1/16
Z:Lee Wenzbauer lee@hiico.com 24 August, 2004
a2 |: "A" e4A2cd e2A2c2A2 | "G" B2=G2B2d2 =g2d2=g2f2 |[1 "A" e4A2cd e2A2c2e2 | a2e2 "D" f2d2 "A" c2e2a2f2 :|[2 "A" e2f2 "D" d2f2 "A" e2a2 "E" g2b2 | "A" a2e2 "D" f2d2 "A" c2A2A2z2
|: "A" a2g2a2e2 c2e2a2=g2 | "D" f2d2 "G" =g2d2 B2G2d2B2 |[1 "A" a2g2a2e2 c2e2a2e2 | "D" f2a2 "E" g2b2 "A" a2A2A2z2 :|[2 "A" c2A2 "Bm" d2B2 "A" e2c2 "D" f2d2 | "A" e2a2 "E" g2b2 "A" a2A2A2z2
